X: 25073
T: Maids Of Glengarry, The
R: jig
M: 6/8
K: Amajor
|:AAA cBA|cea cBA|def eca|B=GB B2e|
AAA cBA|cea cBA|dfe dcB|ABA A2A:|
|:aga ecA|Ace a2e|fdf ecA|B=GB B2e|
aga ecA|Ace a2e|fed cdB|ABA A2A:|

